X:1
T:Title
%%score 1 { 2 | 3 }
L:1/8
Q:1/4=90
M:3/4
K:C
V:1 treble nm="Grand Piano, Soprano"
V:2 bass nm="Choir Pad, St. Chavara, CMD"
V:3 bass 
V:1
 [EG][_E^F] [=EG] [=FA]3 | [EG][CE] [EG] [Ec]3 | z [Ec]2 [FB]3 | [B,F][FA]- [FA]/[FG]/ [EG]3 | %4
w: By~George~Coles~Stebbins,~1895 * * *||||
 [EG][_E^F] [=EG] [=FA]3 | [EG][CE] [EG] [Ec]3 | z [Ge]2 [Gd]3 | [GB][^Fc]- [Fc]/[FA]/ G3 | %8
w: ||||
 [FG][FA] [FB] [Ge]3 | [Fd][Ed]- [Ed]/[Ec]/ [Ec]3 | z [Ec]2 [Fc]3 | [FA][D^G] [_EA] [=EB]3 | %12
w: ||||
 [FB][FA] [FG] [Ec]3 | [Ge][Gd] [Gc] [FA]3 | z [Fc]2 [FB]3 | [FA][FB]- [FB]/[FG]/ [Ec]3- | %16
w: ||||
 [Ec]4 z2 |] %17
w: |
V:2
 G,A, G, C3 | CG, C G,3 | z G,2 G,3 | G,[K:treble]C- C/D/ C3 | C[K:bass]A, G, C3 | %5
 CG,[K:treble] C G,3 | z C2 B,3 | D[K:bass]A,- A,/C/ B,3 | B,C D C3 | B,G,- G,/G,/ G,3 | %10
 z _B,2 A,3 | CB, A, ^G,3 | G,[K:treble]D D C3 | CB, C C3 | z C2 D3 | CD- D/B,/ C3- | C4 z2 |] %17
V:3
 C,C, C, C,3 | C,C, C, C,3 | z C,2 D,3 | D,B,,- B,,/B,,/ C,3 | C,C, C, C,3 | C,C, C, C,3 | %6
 z C,2 D,3 | D,D,- D,/D,/ G,3 | G,G, G, G,3 | G,C,- C,/C,/ C,3 | z C,2 F,3 | F,F, F, E,3 | %12
 D,C, B,, C,3 | C,D, E, F,3 | z A,2 G,3 | G,G,- G,/G,/ C,3- | C,4 z2 |] %17

